svg/web-check.svg

<svg xmlns="http://www.w3.org/2000/svg" fill="none" viewBox="8.424 15.685618729096989 38.844 37.92642140468227" style="max-height: 500px" width="38.844" height="37.92642140468227">
<path stroke-linejoin="round" stroke-linecap="round" stroke-width="2.8" stroke="#000000" d="M43.3 30.1V20.3C43.3 19.9287 43.1525 19.5726 42.89 19.31C42.6274 19.0475 42.2713 18.9 41.9 18.9H13.9C13.5287 18.9 13.1726 19.0475 12.9101 19.31C12.6475 19.5726 12.5 19.9287 12.5 20.3V30.1C12.5 46.9 27.9 51.1 27.9 51.1C27.9 51.1 43.3 46.9 43.3 30.1Z" fill="#ffffff"/>
<path stroke-linejoin="round" stroke-linecap="round" stroke-width="2.8" stroke="#D6FB41" d="M20.8999 34.3L25.0999 38.5L34.8999 28.7" fill="#ffffff"/>
<path fill="#000000" d="M60.07 45.5L55.78 23.63H61.6L63.76 37.82L64.12 40.28H64.36L67.66 23.63H73.7801L77.08 40.28H77.35L77.62 38.21L79.7801 23.63H85.63L81.4001 45.5H73.72L71.1701 33.05L70.84 31.22H70.63L70.3 33.05L67.72 45.5H60.07ZM94.42 45.8C92.58 45.8 91.05 45.45 89.83 44.75C88.63 44.05 87.72 43.08 87.1 41.84C86.5 40.58 86.2 39.12 86.2 37.46V37.13C86.2 35.39 86.53 33.91 87.19 32.69C87.85 31.47 88.76 30.54 89.92 29.9C91.1 29.26 92.45 28.94 93.97 28.94C95.67 28.94 97.11 29.26 98.29 29.9C99.49 30.52 100.4 31.4 101.02 32.54C101.64 33.68 101.95 35 101.95 36.5V38.72H91.57V39.47C91.57 40.17 91.82 40.74 92.32 41.18C92.82 41.6 93.46 41.81 94.24 41.81C94.94 41.81 95.51 41.67 95.95 41.39C96.39 41.09 96.65 40.7 96.73 40.22H101.77C101.71 41.34 101.36 42.32 100.72 43.16C100.08 43.98 99.22 44.63 98.14 45.11C97.06 45.57 95.82 45.8 94.42 45.8ZM91.57 35.36V35.51H96.73V35.36C96.73 34.5 96.49 33.87 96.01 33.47C95.55 33.05 94.93 32.84 94.15 32.84C93.39 32.84 92.77 33.06 92.29 33.5C91.81 33.92 91.57 34.54 91.57 35.36ZM114.879 45.8C113.859 45.8 112.929 45.58 112.089 45.14C111.269 44.7 110.659 44.08 110.259 43.28H110.019L109.719 45.5H104.709V23.63H110.019V31.49H110.259C110.659 30.69 111.269 30.07 112.089 29.63C112.929 29.17 113.859 28.94 114.879 28.94C116.359 28.94 117.549 29.28 118.449 29.96C119.349 30.62 120.009 31.55 120.429 32.75C120.849 33.95 121.059 35.36 121.059 36.98V37.76C121.059 40.62 120.499 42.68 119.379 43.94C118.259 45.18 116.759 45.8 114.879 45.8ZM112.719 41.51C113.579 41.51 114.239 41.27 114.699 40.79C115.179 40.29 115.419 39.6 115.419 38.72V36.05C115.419 35.17 115.179 34.48 114.699 33.98C114.239 33.48 113.579 33.23 112.719 33.23C111.899 33.23 111.249 33.48 110.769 33.98C110.289 34.46 110.049 35.15 110.049 36.05V38.69C110.049 39.61 110.289 40.31 110.769 40.79C111.249 41.27 111.899 41.51 112.719 41.51Z"/>
<path fill="#D6FB41" d="M133.77 45.8C131.61 45.8 129.77 45.41 128.25 44.63C126.73 43.83 125.56 42.71 124.74 41.27C123.94 39.83 123.54 38.15 123.54 36.23V35.96C123.54 33.38 123.99 31.15 124.89 29.27C125.79 27.37 127.1 25.91 128.82 24.89C130.54 23.85 132.61 23.33 135.03 23.33C136.99 23.33 138.71 23.67 140.19 24.35C141.67 25.01 142.83 25.94 143.67 27.14C144.51 28.34 144.96 29.75 145.02 31.37H139.17C139.05 30.41 138.59 29.64 137.79 29.06C137.01 28.48 136.02 28.19 134.82 28.19C133.4 28.19 132.27 28.52 131.43 29.18C130.59 29.82 130.05 30.83 129.81 32.21L129.24 35.36C128.94 37.1 129.21 38.47 130.05 39.47C130.89 40.45 132.13 40.94 133.77 40.94C134.99 40.94 135.97 40.69 136.71 40.19C137.47 39.67 137.97 38.97 138.21 38.09H144C143.7 39.73 143.08 41.13 142.14 42.29C141.2 43.43 140.01 44.3 138.57 44.9C137.13 45.5 135.53 45.8 133.77 45.8ZM145.633 45.5L149.503 23.63H154.873L153.553 31.19H153.883C154.343 30.49 154.973 29.95 155.773 29.57C156.593 29.17 157.463 28.97 158.383 28.97C160.283 28.97 161.693 29.62 162.613 30.92C163.553 32.2 163.813 34.02 163.393 36.38L161.773 45.5H156.373L157.963 36.47C158.163 35.41 158.063 34.6 157.663 34.04C157.263 33.48 156.603 33.2 155.683 33.2C154.843 33.2 154.173 33.47 153.673 34.01C153.173 34.53 152.843 35.22 152.683 36.08L151.063 45.5H145.633ZM173.599 45.8C171.219 45.8 169.339 45.14 167.959 43.82C166.599 42.5 165.919 40.67 165.919 38.33V38.09C165.919 36.25 166.249 34.65 166.909 33.29C167.569 31.91 168.539 30.85 169.819 30.11C171.099 29.35 172.639 28.97 174.439 28.97C176.179 28.97 177.649 29.32 178.849 30.02C180.069 30.7 180.949 31.67 181.489 32.93C182.049 34.17 182.209 35.63 181.969 37.31L181.759 38.72H171.049C171.049 38.78 171.039 38.85 171.019 38.93C171.019 38.99 171.019 39.06 171.019 39.14C170.899 39.94 171.099 40.59 171.619 41.09C172.139 41.57 172.849 41.81 173.749 41.81C174.429 41.81 174.999 41.68 175.459 41.42C175.939 41.16 176.259 40.78 176.419 40.28H181.489C181.209 41.98 180.379 43.33 178.999 44.33C177.619 45.31 175.819 45.8 173.599 45.8ZM171.679 35.21L171.619 35.51H176.989C177.049 34.63 176.849 33.97 176.389 33.53C175.949 33.07 175.299 32.84 174.439 32.84C173.579 32.84 172.929 33.07 172.489 33.53C172.049 33.97 171.779 34.53 171.679 35.21ZM191.498 45.8C189.098 45.8 187.218 45.14 185.858 43.82C184.518 42.5 183.848 40.75 183.848 38.57V38.33C183.848 36.43 184.178 34.78 184.838 33.38C185.518 31.98 186.488 30.9 187.748 30.14C189.028 29.36 190.568 28.97 192.368 28.97C194.648 28.97 196.478 29.55 197.858 30.71C199.258 31.87 199.988 33.44 200.048 35.42H194.918C194.878 34.68 194.618 34.14 194.138 33.8C193.678 33.46 193.088 33.29 192.368 33.29C191.528 33.29 190.878 33.51 190.418 33.95C189.958 34.37 189.668 34.97 189.548 35.75L189.158 38.15C188.978 39.21 189.118 40.03 189.578 40.61C190.038 41.19 190.738 41.48 191.678 41.48C192.378 41.48 192.958 41.3 193.418 40.94C193.878 40.58 194.178 40.1 194.318 39.5H199.478C199.398 40.76 199.008 41.86 198.308 42.8C197.628 43.74 196.708 44.48 195.548 45.02C194.388 45.54 193.038 45.8 191.498 45.8ZM201.092 45.5L204.932 23.63H210.332L208.232 35.42L214.622 29.27H221.222L214.052 35.69L218.402 45.5H212.552L209.852 38.96L207.212 41.27L206.462 45.5H201.092Z"/>
</svg>

<svg xmlns="http://www.w3.org/2000/svg" width="38.844" height="37.926" fill="none" style="max-height:500px" viewBox="8.424 15.686 38.844 37.926"><path fill="#fff" stroke="#000" stroke-linecap="round" stroke-linejoin="round" stroke-width="2.8" d="M43.3 30.1v-9.8a1.4 1.4 0 0 0-1.4-1.4h-28a1.4 1.4 0 0 0-1.4 1.4v9.8c0 16.8 15.4 21 15.4 21s15.4-4.2 15.4-21"/><path fill="#fff" stroke="#D6FB41" stroke-linecap="round" stroke-linejoin="round" stroke-width="2.8" d="m20.9 34.3 4.2 4.2 9.8-9.8"/><path fill="#000" d="m60.07 45.5-4.29-21.87h5.82l2.16 14.19.36 2.46h.24l3.3-16.65h6.12l3.3 16.65h.27l.27-2.07 2.16-14.58h5.85L81.4 45.5h-7.68l-2.55-12.45-.33-1.83h-.21l-.33 1.83-2.58 12.45zm34.35.3q-2.76 0-4.59-1.05-1.8-1.05-2.73-2.91-.9-1.89-.9-4.38v-.33q0-2.61.99-4.44t2.73-2.79q1.77-.96 4.05-.96 2.55 0 4.32.96 1.8.93 2.73 2.64t.93 3.96v2.22H91.57v.75q0 1.05.75 1.71.75.63 1.92.63 1.05 0 1.71-.42.66-.45.78-1.17h5.04q-.09 1.68-1.05 2.94-.96 1.23-2.58 1.95-1.62.69-3.72.69m-2.85-10.44v.15h5.16v-.15q0-1.29-.72-1.89-.69-.63-1.86-.63-1.14 0-1.86.66-.72.63-.72 1.86m23.309 10.44q-1.53 0-2.79-.66-1.23-.66-1.83-1.86h-.24l-.3 2.22h-5.01V23.63h5.31v7.86h.24q.6-1.2 1.83-1.86 1.26-.69 2.79-.69 2.22 0 3.57 1.02 1.35.99 1.98 2.79t.63 4.23v.78q0 4.29-1.68 6.18-1.68 1.86-4.5 1.86m-2.16-4.29q1.29 0 1.98-.72.72-.75.72-2.07v-2.67q0-1.32-.72-2.07-.69-.75-1.98-.75-1.23 0-1.95.75-.72.72-.72 2.07v2.64q0 1.38.72 2.1t1.95.72"/><path fill="#D6FB41" d="M133.77 45.8q-3.24 0-5.52-1.17-2.28-1.2-3.51-3.36-1.2-2.16-1.2-5.04v-.27q0-3.87 1.35-6.69 1.35-2.85 3.93-4.38 2.58-1.56 6.21-1.56 2.94 0 5.16 1.02 2.22.99 3.48 2.79t1.35 4.23h-5.85q-.18-1.44-1.38-2.31-1.17-.87-2.97-.87-2.13 0-3.39.99-1.26.96-1.62 3.03l-.57 3.15q-.45 2.61.81 4.11 1.26 1.47 3.72 1.47 1.83 0 2.94-.75a3.63 3.63 0 0 0 1.5-2.1H144q-.45 2.46-1.86 4.2-1.41 1.71-3.57 2.61t-4.8.9m11.863-.3 3.87-21.87h5.37l-1.32 7.56h.33q.69-1.05 1.89-1.62 1.23-.6 2.61-.6 2.85 0 4.23 1.95 1.41 1.92.78 5.46l-1.62 9.12h-5.4l1.59-9.03q.3-1.59-.3-2.43t-1.98-.84q-1.26 0-2.01.81-.75.78-.99 2.07l-1.62 9.42zm27.966.3q-3.57 0-5.64-1.98-2.04-1.98-2.04-5.49v-.24q0-2.76.99-4.8.99-2.07 2.91-3.18 1.92-1.14 4.62-1.14 2.61 0 4.41 1.05 1.83 1.02 2.64 2.91.84 1.86.48 4.38l-.21 1.41h-10.71q0 .09-.03.21v.21q-.18 1.2.6 1.95.78.72 2.13.72 1.02 0 1.71-.39.72-.39.96-1.14h5.07q-.42 2.55-2.49 4.05-2.07 1.47-5.4 1.47m-1.92-10.59-.06.3h5.37q.09-1.32-.6-1.98-.66-.69-1.95-.69t-1.95.69q-.66.66-.81 1.68m19.819 10.59q-3.6 0-5.64-1.98-2.01-1.98-2.01-5.25v-.24q0-2.85.99-4.95 1.02-2.1 2.91-3.24 1.92-1.17 4.62-1.17 3.42 0 5.49 1.74 2.1 1.74 2.19 4.71h-5.13q-.06-1.11-.78-1.62-.69-.51-1.77-.51-1.26 0-1.95.66-.69.63-.87 1.8l-.39 2.4q-.27 1.59.42 2.46t2.1.87q1.05 0 1.74-.54t.9-1.44h5.16q-.12 1.89-1.17 3.3-1.02 1.41-2.76 2.22-1.74.78-4.05.78m9.594-.3 3.84-21.87h5.4l-2.1 11.79 6.39-6.15h6.6l-7.17 6.42 4.35 9.81h-5.85l-2.7-6.54-2.64 2.31-.75 4.23z"/></svg>
